app/assets/images/logo.svg

<svg fill="none" height="44" viewBox="0 0 218 44" width="218" xmlns="http://www.w3.org/2000/svg"><g fill="#2a2828"><path d="m218 34.4937c-1.533 0-3.143 0-4.752 0 0-.3833 0-.6899 0-.9965 0-3.3727 0-6.8221 0-10.1948 0-.3066 0-.5366 0-.8432-.077-3.0661-1.38-4.4458-4.14-4.4458-2.989 0-5.212 1.9929-5.289 4.7524-.076 3.5261 0 7.1287 0 10.6547v1.0732c-1.609 0-3.142 0-4.752 0 0-6.3622 0-12.801 0-19.2398h4.369v2.8361c2.223-2.7595 4.906-3.7559 8.049-3.4493 3.296.3066 5.672 1.763 6.515 5.2123z"/><path d="m121.801 34.4936c-1.686 0-3.219 0-4.752 0 0-6.4388 0-12.8009 0-19.3164h4.522v2.3762c.077.0767.153.0767.153.1533 1.61-2.1463 3.833-3.1427 6.439-3.1427s4.829.6132 6.286 3.1427c1.303-1.533 2.836-2.6062 4.829-2.9128 1.763-.3066 3.526-.2299 5.289.23 2.223.6132 3.679 2.1463 3.756 4.4458.153 4.9824.076 9.9649.076 15.0239-1.456 0-2.989 0-4.675 0 0-.3832 0-.7665 0-1.1498 0-3.9092 0-7.8185-.077-11.6511-.077-2.3763-.996-3.3728-3.066-3.6027-2.53-.3066-4.446.7665-5.059 2.8361-.23.8432-.307 1.6864-.307 2.5296v11.1146c-1.609 0-3.143 0-4.829 0 0-.3066 0-.6132 0-.9965 0-3.8326 0-7.5886 0-11.4212 0-1.4564-.153-2.9128-1.61-3.6794-1.533-.7665-3.142-.6898-4.675.23-1.61.9965-2.223 2.5295-2.223 4.3692v10.4248c-.077.2299-.077.5365-.077.9964z"/><path d="m90.22 16.6335c-1.533 0-3.1427 0-4.6758 0-.1533 0-.4599-.2299-.5366-.3832-1.1497-3.2961-3.6026-4.7525-6.9753-4.7525-3.3728 0-6.0556 1.3031-7.742 4.3692-2.0696 3.9093-1.533 9.5816 1.0732 12.801 2.9128 3.526 10.4247 4.1392 12.9543-.9965.4599-.9198.6898-1.993 1.0731-3.0661h4.8291c-.1533 2.6062-1.0731 4.8291-2.7595 6.7454-1.8396 2.0696-4.2159 3.2194-6.9754 3.6027-4.3692.6899-8.4317 0-11.9578-2.9128-4.2925-3.4494-5.8256-9.7349-3.9859-15.3305 1.763-5.2124 6.3622-8.66177 11.9578-8.96838 2.9895-.1533 5.9022.22996 8.6617 1.68636 3.0661 1.53302 4.9825 4.29252 5.0591 7.20532z"/><path d="m167.639 17.4768c0-3.3728 0-6.5155 0-9.73492h4.753v26.75172c-1.457 0-2.837 0-4.446 0 0-.7665 0-1.533 0-2.5295-2.453 3.0661-5.596 3.4494-8.969 2.9895-4.599-.6899-7.665-3.986-7.972-8.7384-.076-1.5331-.076-3.0661.23-4.5225.997-4.5992 4.906-7.3587 9.582-7.0521 2.683.0767 4.906.7665 6.822 2.8362zm.23 7.282c-.077-.7666-.153-1.4564-.307-2.0697-.536-2.8361-2.606-4.5991-5.365-4.6758-3.066-.1533-5.289 1.3798-6.056 4.2159-.306 1.2265-.46 2.4529-.383 3.6793.153 3.2961 2.376 5.4424 5.442 5.749 2.99.2299 5.443-1.5331 6.209-4.5992.307-.7665.383-1.6097.46-2.2995z"/><path d="m107.007 32.8073c-3.526 2.2229-7.2052 2.9128-11.0378 1.6097-3.0661-.9965-4.3692-3.4493-3.756-6.5154.3833-1.7631 1.4564-3.0661 3.1428-3.5261 2.1463-.6132 4.4458-.9198 6.669-1.3031 1.073-.2299 2.146-.3066 3.219-.5365.92-.23 1.61-.7666 1.687-1.8397.076-.9198-.384-1.763-1.38-2.2229-2.07-.8432-4.139-.8432-6.1324.0766-.9965.46-1.3031.9965-1.763 2.4529-1.5331 0-3.0661 0-4.6758 0 .1533-2.2996 1.1498-4.0626 3.1427-4.9824 4.1395-1.993 8.4315-2.0696 12.5715-.1533 1.916.8432 2.836 2.4529 2.836 4.6758v8.8917c0 2.2229 0 2.2996 2.299 2.2229v2.5296c0 .1533-.23.4599-.383.4599-1.303.1533-2.53.3832-3.833.3066-1.379-.0767-2.299-.8432-2.606-2.1463zm-.46-7.6652c-1.686.2299-3.296.4599-4.905.7665-1.227.2299-2.3767.4599-3.5265.9965-.9965.3832-1.3031 1.3797-1.3031 2.4529.0766.9964.6899 1.533 1.533 1.8396 2.2996.8432 4.5226.6899 6.5926-.5366.843-.4599 1.456-1.2264 1.456-2.2229.23-1.1498.153-2.2996.153-3.296z"/><path d="m196.077 25.9085c-2.682 0-5.289 0-7.972 0-2.606 0-5.289 0-7.895 0-.23 2.2996 1.303 4.6758 3.526 5.3657 3.143.9965 5.903 0 7.512-2.8361h4.523c-.307 1.533-1.073 2.7594-2.147 3.8326-3.985 3.8326-11.881 3.756-15.637-.3066-2.989-3.2194-3.296-7.1287-1.839-11.038 1.379-3.8326 4.369-5.9022 8.431-6.2855 4.446-.4599 8.126.9965 10.425 4.9824.997 1.9163 1.303 3.9859 1.073 6.2855zm-4.905-2.8361c-.154-3.1428-2.683-5.2891-5.826-5.0591-2.913.23-5.289 2.5295-5.059 5.0591z"/><g clip-rule="evenodd" fill-rule="evenodd"><path d="m48.9809 35.5669h-12.0344v-1.3031h3.526s1.9163-.3067.9965-2.0697c-.0767-.0766-.3833-.1533-.3833-.1533h-4.9824l-7.1287 3.3727v7.5887h13.9508s5.519-1.2265 6.0555-7.4353z"/><path d="m6.66895 35.5669h12.03445v-1.3031h-3.526s-1.9163-.3067-.9965-2.0697c.0767-.0766.3833-.1533.3833-.1533h4.9824l7.1287 3.3727v7.5887h-13.9508s-5.51899-1.2265-6.05555-7.4353z"/><path d="m20.0063 30.5077h-12.11108v1.3031h3.52598s1.9164.3066.9965 2.0696c-.0766.0767-.3832.1533-.3832.1533h-4.90581l-7.12869-3.3727v-7.5886h13.9508s5.4423 1.2264 6.0555 7.4353z"/><path d="m48.9809 7.4353h-12.0344v1.30309h3.526s1.9163.30662.9965 2.06961c-.0767.0767-.3833.1533-.3833.1533h-4.9824l-7.1287-3.37269v-7.58861h13.9508s5.519 1.22644 6.0555 7.4353z"/><path d="m6.66895 7.4353h12.03445v1.30309h-3.526s-1.9163.30662-.9965 2.06961c.0767.0767.3833.1533.3833.1533h4.9824l7.1287-3.37269v-7.58861h-13.9508s-5.51899 1.22644-6.05555 7.4353z"/><path d="m20.0063 12.4943h-12.11108v-1.3031h3.52598s1.9164-.3066.9965-2.06963c-.0766-.07666-.3832-.15331-.3832-.15331h-4.90581l-7.12869 3.37274v7.5886h13.9508s5.4423-1.2265 6.0555-7.4353z"/><path d="m35.9502 12.4943h12.0344v-1.3031h-3.526s-1.9163-.3066-.9965-2.06963c.0767-.07666.3833-.15331.3833-.15331h4.9824l7.1287 3.37274v7.5886h-13.8741s-5.519-1.2265-6.1322-7.4353z"/><path d="m35.9502 30.5077h12.0344v1.3031h-3.526s-1.9163.3066-.9965 2.0696c.0767.0767.3833.1533.3833.1533h4.9824l7.1287-3.3727v-7.5886h-13.8741s-5.519 1.2264-6.1322 7.4353z"/></g></g></svg>

<svg width="218" height="44" viewBox="0 0 218 44" fill="none" xmlns="http://www.w3.org/2000/svg">
<path d="M218 34.4937C216.467 34.4937 214.857 34.4937 213.248 34.4937C213.248 34.1104 213.248 33.8038 213.248 33.4972C213.248 30.1245 213.248 26.6751 213.248 23.3024C213.248 22.9958 213.248 22.7658 213.248 22.4592C213.171 19.3931 211.868 18.0134 209.108 18.0134C206.119 18.0134 203.896 20.0063 203.819 22.7658C203.743 26.2919 203.819 29.8945 203.819 33.4205C203.819 33.7272 203.819 34.1104 203.819 34.4937C202.21 34.4937 200.677 34.4937 199.067 34.4937C199.067 28.1315 199.067 21.6927 199.067 15.2539C200.523 15.2539 201.98 15.2539 203.436 15.2539C203.436 16.0971 203.436 16.9402 203.436 18.09C205.659 15.3305 208.342 14.3341 211.485 14.6407C214.781 14.9473 217.157 16.4037 218 19.853C218 24.6822 218 29.5879 218 34.4937Z" fill="#2A2828"/>
<path d="M121.801 34.4936C120.115 34.4936 118.582 34.4936 117.049 34.4936C117.049 28.0548 117.049 21.6927 117.049 15.1772C118.505 15.1772 119.961 15.1772 121.571 15.1772C121.571 15.9437 121.571 16.7869 121.571 17.5534C121.648 17.6301 121.724 17.6301 121.724 17.7067C123.334 15.5604 125.557 14.564 128.163 14.564C130.769 14.564 132.992 15.1772 134.449 17.7067C135.752 16.1737 137.285 15.1005 139.278 14.7939C141.041 14.4873 142.804 14.564 144.567 15.0239C146.79 15.6371 148.246 17.1702 148.323 19.4697C148.476 24.4521 148.399 29.4346 148.399 34.4936C146.943 34.4936 145.41 34.4936 143.724 34.4936C143.724 34.1104 143.724 33.7271 143.724 33.3438C143.724 29.4346 143.724 25.5253 143.647 21.6927C143.57 19.3164 142.651 18.3199 140.581 18.09C138.051 17.7834 136.135 18.8565 135.522 20.9261C135.292 21.7693 135.215 22.6125 135.215 23.4557C135.215 27.135 135.215 30.8143 135.215 34.5703C133.606 34.5703 132.072 34.5703 130.386 34.5703C130.386 34.2637 130.386 33.9571 130.386 33.5738C130.386 29.7412 130.386 25.9852 130.386 22.1526C130.386 20.6962 130.233 19.2398 128.776 18.4732C127.243 17.7067 125.634 17.7834 124.101 18.7032C122.491 19.6997 121.878 21.2327 121.878 23.0724C121.878 26.5218 121.878 29.9711 121.878 33.4972C121.801 33.7271 121.801 34.0337 121.801 34.4936Z" fill="#2A2828"/>
<path d="M90.22 16.6335C88.687 16.6335 87.0773 16.6335 85.5442 16.6335C85.3909 16.6335 85.0843 16.4036 85.0076 16.2503C83.8579 12.9542 81.405 11.4978 78.0323 11.4978C74.6595 11.4978 71.9767 12.8009 70.2903 15.867C68.2207 19.7763 68.7573 25.4486 71.3635 28.668C74.2763 32.194 81.7882 32.8072 84.3178 27.6715C84.7777 26.7517 85.0076 25.6785 85.3909 24.6054C86.924 24.6054 88.5337 24.6054 90.22 24.6054C90.0667 27.2116 89.1469 29.4345 87.4605 31.3508C85.6209 33.4204 83.2446 34.5702 80.4851 34.9535C76.1159 35.6434 72.0534 34.9535 68.5273 32.0407C64.2348 28.5913 62.7017 22.3058 64.5414 16.7102C66.3044 11.4978 70.9036 8.04843 76.4992 7.74182C79.4887 7.58852 82.4014 7.97178 85.1609 9.42818C88.227 10.9612 90.1434 13.7207 90.22 16.6335Z" fill="#2A2828"/>
<path d="M167.639 17.4768C167.639 14.104 167.639 10.9613 167.639 7.74188C169.249 7.74188 170.782 7.74188 172.392 7.74188C172.392 16.6336 172.392 25.5253 172.392 34.4936C170.935 34.4936 169.555 34.4936 167.946 34.4936C167.946 33.7271 167.946 32.9606 167.946 31.9641C165.493 35.0302 162.35 35.4135 158.977 34.9536C154.378 34.2637 151.312 30.9676 151.005 26.2152C150.929 24.6821 150.929 23.1491 151.235 21.6927C152.232 17.0935 156.141 14.334 160.817 14.6406C163.5 14.7173 165.723 15.4071 167.639 17.4768ZM167.869 24.7588C167.792 23.9922 167.716 23.3024 167.562 22.6891C167.026 19.853 164.956 18.09 162.197 18.0133C159.131 17.86 156.908 19.3931 156.141 22.2292C155.835 23.4557 155.681 24.6821 155.758 25.9085C155.911 29.2046 158.134 31.3509 161.2 31.6575C164.19 31.8874 166.643 30.1244 167.409 27.0583C167.716 26.2918 167.792 25.4486 167.869 24.7588Z" fill="#2A2828"/>
<path d="M107.007 32.8073C103.481 35.0302 99.8018 35.7201 95.9692 34.417C92.9031 33.4205 91.6 30.9677 92.2132 27.9016C92.5965 26.1385 93.6696 24.8355 95.356 24.3755C97.5023 23.7623 99.8018 23.4557 102.025 23.0724C103.098 22.8425 104.171 22.7658 105.244 22.5359C106.164 22.3059 106.854 21.7693 106.931 20.6962C107.007 19.7764 106.547 18.9332 105.551 18.4733C103.481 17.6301 101.412 17.6301 99.4186 18.5499C98.4221 19.0099 98.1155 19.5464 97.6556 21.0028C96.1225 21.0028 94.5895 21.0028 92.9798 21.0028C93.1331 18.7032 94.1296 16.9402 96.1225 16.0204C100.262 14.0274 104.554 13.9508 108.694 15.8671C110.61 16.7103 111.53 18.32 111.53 20.5429C111.53 23.5324 111.53 26.5218 111.53 29.4346C111.53 31.6575 111.53 31.7342 113.829 31.6575C113.829 32.5007 113.829 33.3439 113.829 34.1871C113.829 34.3404 113.599 34.647 113.446 34.647C112.143 34.8003 110.916 35.0302 109.613 34.9536C108.234 34.8769 107.314 34.1104 107.007 32.8073ZM106.547 25.1421C104.861 25.372 103.251 25.602 101.642 25.9086C100.415 26.1385 99.2653 26.3685 98.1155 26.9051C97.119 27.2883 96.8124 28.2848 96.8124 29.358C96.889 30.3544 97.5023 30.891 98.3454 31.1976C100.645 32.0408 102.868 31.8875 104.938 30.661C105.781 30.2011 106.394 29.4346 106.394 28.4381C106.624 27.2883 106.547 26.1385 106.547 25.1421Z" fill="#2A2828"/>
<path d="M196.077 25.9085C193.395 25.9085 190.788 25.9085 188.105 25.9085C185.499 25.9085 182.816 25.9085 180.21 25.9085C179.98 28.2081 181.513 30.5843 183.736 31.2742C186.879 32.2707 189.639 31.2742 191.248 28.4381C192.705 28.4381 194.161 28.4381 195.771 28.4381C195.464 29.9711 194.698 31.1975 193.624 32.2707C189.639 36.1033 181.743 36.0267 177.987 31.9641C174.998 28.7447 174.691 24.8354 176.148 20.9261C177.527 17.0935 180.517 15.0239 184.579 14.6406C189.025 14.1807 192.705 15.6371 195.004 19.623C196.001 21.5393 196.307 23.6089 196.077 25.9085ZM191.172 23.0724C191.018 19.9296 188.489 17.7833 185.346 18.0133C182.433 18.2433 180.057 20.5428 180.287 23.0724C183.89 23.0724 187.492 23.0724 191.172 23.0724Z" fill="#2A2828"/>
<path fill-rule="evenodd" clip-rule="evenodd" d="M48.9809 35.5669H36.9465V34.2638H40.4725C40.4725 34.2638 42.3888 33.9571 41.469 32.1941C41.3923 32.1175 41.0857 32.0408 41.0857 32.0408H36.1033L28.9746 35.4135V43.0022H42.9254C42.9254 43.0022 48.4444 41.7757 48.9809 35.5669Z" fill="#2A2828"/>
<path fill-rule="evenodd" clip-rule="evenodd" d="M6.66895 35.5669H18.7034V34.2638H15.1774C15.1774 34.2638 13.2611 33.9571 14.1809 32.1941C14.2576 32.1175 14.5642 32.0408 14.5642 32.0408H19.5466L26.6753 35.4135V43.0022H12.7245C12.7245 43.0022 7.20551 41.7757 6.66895 35.5669Z" fill="#2A2828"/>
<path fill-rule="evenodd" clip-rule="evenodd" d="M20.0063 30.5077H7.89522V31.8108H11.4212C11.4212 31.8108 13.3376 32.1174 12.4177 33.8804C12.3411 33.9571 12.0345 34.0337 12.0345 34.0337H7.12869L0 30.661V23.0724H13.9508C13.9508 23.0724 19.3931 24.2988 20.0063 30.5077Z" fill="#2A2828"/>
<path fill-rule="evenodd" clip-rule="evenodd" d="M48.9809 7.4353H36.9465V8.73839H40.4725C40.4725 8.73839 42.3888 9.04501 41.469 10.808C41.3923 10.8847 41.0857 10.9613 41.0857 10.9613H36.1033L28.9746 7.58861V0H42.9254C42.9254 0 48.4444 1.22644 48.9809 7.4353Z" fill="#2A2828"/>
<path fill-rule="evenodd" clip-rule="evenodd" d="M6.66895 7.4353H18.7034V8.73839H15.1774C15.1774 8.73839 13.2611 9.04501 14.1809 10.808C14.2576 10.8847 14.5642 10.9613 14.5642 10.9613H19.5466L26.6753 7.58861V0H12.7245C12.7245 0 7.20551 1.22644 6.66895 7.4353Z" fill="#2A2828"/>
<path fill-rule="evenodd" clip-rule="evenodd" d="M20.0063 12.4943H7.89522V11.1912H11.4212C11.4212 11.1912 13.3376 10.8846 12.4177 9.12157C12.3411 9.04491 12.0345 8.96826 12.0345 8.96826H7.12869L0 12.341V19.9296H13.9508C13.9508 19.9296 19.3931 18.7031 20.0063 12.4943Z" fill="#2A2828"/>
<path fill-rule="evenodd" clip-rule="evenodd" d="M35.9502 12.4943H47.9846V11.1912H44.4586C44.4586 11.1912 42.5423 10.8846 43.4621 9.12157C43.5388 9.04491 43.8454 8.96826 43.8454 8.96826H48.8278L55.9565 12.341V19.9296H42.0824C42.0824 19.9296 36.5634 18.7031 35.9502 12.4943Z" fill="#2A2828"/>
<path fill-rule="evenodd" clip-rule="evenodd" d="M35.9502 30.5077H47.9846V31.8108H44.4586C44.4586 31.8108 42.5423 32.1174 43.4621 33.8804C43.5388 33.9571 43.8454 34.0337 43.8454 34.0337H48.8278L55.9565 30.661V23.0724H42.0824C42.0824 23.0724 36.5634 24.2988 35.9502 30.5077Z" fill="#2A2828"/>
</svg>
